packages/foundations/assets/icons/functional/images/human/toys_32.svg

<svg width="32" height="32" viewBox="0 0 32 32" fill="none" xmlns="http://www.w3.org/2000/svg">
<g clip-path="url(#clip0_185_1214)">
<path fill-rule="evenodd" clip-rule="evenodd" d="M24 2C27.3137 2 30 4.68629 30 8C30 9.74175 29.2611 11.3906 27.903 12.555C27.9661 13.0152 27.9984 13.4969 28 14C28 20.0751 23.0751 25 17 25C16.499 25 16.0019 24.9664 15.511 24.9C14.9637 24.8258 14.5802 24.3221 14.6543 23.7748C14.7284 23.2275 15.2322 22.8439 15.7794 22.9181C16.1814 22.9725 16.5888 23 17 23C21.9706 23 26 18.9706 26 14C26 13.542 25.9481 12.6676 25.7188 11.672C27.3955 10.7144 28 9.33644 28 8C28 5.79086 26.2091 4 24 4C22.959 4 21.8175 4.34074 20.6368 5.73861C18.9226 5.09832 18.0428 5 17 5C16.0877 5 15.0815 5.09333 13.3635 5.73819C12.1763 4.30742 11.1199 4 10 4C7.79086 4 6.07942 5.79229 6 8C5.91814 10.2754 7.96647 11.4663 8.27982 11.6691C8.22829 11.924 8 13 8 14C8 15 8.09186 15.3494 8.20705 16.0454C10.9107 16.392 13 18.702 13 21.5C13 22.8211 12.5342 24.0335 11.7578 24.9818L12.6451 26.0314C12.7603 26.0108 12.8789 26 13 26C14.1046 26 15 26.8954 15 28C15 29.1046 14.1046 30 13 30C11.8954 30 11 29.1046 11 28C11 27.7627 11.0413 27.5351 11.1172 27.3239L10.2311 26.2751C9.42641 26.7363 8.494 27 7.5 27C4.46243 27 2 24.5376 2 21.5C2 18.9062 3.79544 16.7318 6.21129 16.1518C6.07043 15.3486 6 14.6313 6 14C6 13.2461 6.03929 13.0533 6.096 12.554C5.3359 11.9109 4.00872 10.3374 4.00559 8.26031C4 4.56018 6.68629 2 10 2C11.3981 2 12.6451 2.41743 13.902 3.444C14.8285 3.148 15.8612 3 17 3C17.9895 3 19.3192 3.1754 20.097 3.444C21.3482 2.41819 22.561 2 24 2ZM18.15 15C18.6194 15 19 15.3806 19 15.85C19 16.3194 18.6194 16.7 18.15 16.7H17.85L17.8511 17.6003C18.1381 17.8068 18.3981 17.9 18.6364 17.9C18.8992 17.9 19.1034 17.7877 19.3126 17.5001C19.5887 17.1204 20.1203 17.0365 20.4999 17.3126C20.8796 17.5887 20.9635 18.1203 20.6874 18.4999C20.1694 19.2123 19.4644 19.6 18.6364 19.6C18.1175 19.6 17.5371 19.4286 17 19.075C16.4951 19.4043 16.1917 19.6 15.3636 19.6C14.5356 19.6 13.8306 19.2123 13.3126 18.4999C13.0365 18.1203 13.1204 17.5887 13.5001 17.3126C13.8797 17.0365 14.4113 17.1204 14.6874 17.5001C14.8966 17.7877 15.1008 17.9 15.3636 17.9C15.6022 17.9 15.8625 17.8066 16.1499 17.5996L16.15 16.7H15.85C15.3806 16.7 15 16.3194 15 15.85C15 15.3806 15.3806 15 15.85 15H18.15ZM12.75 10.5C13.4404 10.5 14 11.0596 14 11.75C14 12.4404 13.4404 13 12.75 13C12.0596 13 11.5 12.4404 11.5 11.75C11.5 11.0596 12.0596 10.5 12.75 10.5ZM21.75 10.5C22.4404 10.5 23 11.0596 23 11.75C23 12.4404 22.4404 13 21.75 13C21.0596 13 20.5 12.4404 20.5 11.75C20.5 11.0596 21.0596 10.5 21.75 10.5ZM10.7662 20.2397L10.6599 20.4417C9.65645 22.2701 7.85185 23.7373 5.74363 24.5295C6.25964 24.8281 6.85975 25 7.5 25C9.433 25 11 23.433 11 21.5C11 21.0557 10.9172 20.6308 10.7662 20.2397ZM7.5 18C5.567 18 4 19.567 4 21.5C4 21.9973 4.10373 22.4704 4.29073 22.8989C6.65627 22.2589 8.66465 20.5718 9.29653 18.5735L9.3211 18.5105C8.79056 18.1866 8.16707 18 7.5 18Z" fill="#1A1C1F"/>
</g>
<defs>
<clipPath id="clip0_185_1214">
<rect width="32" height="32" fill="white"/>
</clipPath>
</defs>
</svg>

<svg xmlns="http://www.w3.org/2000/svg" width="32" height="32" fill="none"><g clip-path="url(#a)"><path fill="#1A1C1F" fill-rule="evenodd" d="M24 2a6 6 0 0 1 6 6c0 1.742-.739 3.39-2.097 4.555q.094.69.097 1.445c0 6.075-4.925 11-11 11q-.752 0-1.489-.1a1 1 0 0 1 .268-1.982Q16.383 23 17 23a9 9 0 0 0 9-9c0-.458-.052-1.332-.281-2.328C27.395 10.714 28 9.336 28 8a4 4 0 0 0-4-4c-1.041 0-2.183.34-3.363 1.739C18.923 5.099 18.043 5 17 5c-.912 0-1.918.093-3.636.738C12.176 4.308 11.12 4 10 4 7.79 4 6.08 5.792 6 8c-.082 2.275 1.966 3.466 2.28 3.67C8.228 11.923 8 13 8 14s.092 1.35.207 2.045a5.5 5.5 0 0 1 3.55 8.937l.888 1.05Q12.818 26 13 26a2 2 0 1 1-1.883 1.324l-.886-1.049a5.5 5.5 0 1 1-4.02-10.123A12.6 12.6 0 0 1 6 14c0-.754.04-.947.096-1.446-.76-.643-2.087-2.217-2.09-4.294C4 4.56 6.686 2 10 2c1.398 0 2.645.417 3.902 1.444Q15.292 3 17 3c.99 0 2.32.175 3.097.444C21.348 2.418 22.561 2 24 2m-5.85 13a.85.85 0 0 1 0 1.7h-.3l.001.9c.287.207.547.3.785.3.263 0 .467-.112.677-.4a.85.85 0 1 1 1.374 1c-.518.712-1.223 1.1-2.05 1.1-.52 0-1.1-.171-1.637-.525-.505.33-.808.525-1.636.525s-1.533-.388-2.051-1.1a.85.85 0 1 1 1.374-1c.21.288.414.4.677.4.238 0 .498-.093.786-.3v-.9h-.3a.85.85 0 0 1 0-1.7zm-5.4-4.5a1.25 1.25 0 1 1 0 2.5 1.25 1.25 0 0 1 0-2.5m9 0a1.25 1.25 0 1 1 0 2.5 1.25 1.25 0 0 1 0-2.5m-10.984 9.74-.106.202c-1.004 1.828-2.808 3.295-4.916 4.087a3.5 3.5 0 0 0 5.023-4.29M7.5 18a3.5 3.5 0 0 0-3.21 4.899c2.366-.64 4.375-2.327 5.007-4.326l.024-.062A3.5 3.5 0 0 0 7.5 18" clip-rule="evenodd"/></g><defs><clipPath id="a"><path fill="#fff" d="M0 0h32v32H0z"/></clipPath></defs></svg>
